public/img/Mypage/Vector5.svg

<svg width="13" height="13" viewBox="0 0 13 13" fill="none" xmlns="http://www.w3.org/2000/svg">
<path d="M0.957031 0.810547H2.4419V12.6895H0.957031V0.810547ZM11.3511 0.810547H3.18433V12.6895H11.3511C12.1678 12.6895 12.836 12.0955 12.836 11.3696V2.13043C12.836 1.40449 12.1678 0.810547 11.3511 0.810547ZM9.86623 4.77019H5.41163V4.11025H9.86623V4.77019ZM9.86623 3.45031H5.41163V2.79037H9.86623V3.45031Z" fill="#3C332B"/>
</svg>

<svg xmlns="http://www.w3.org/2000/svg" width="13" height="13" fill="none"><path fill="#3C332B" d="M.957.81h1.485v11.88H.957zm10.394 0H3.184v11.88h8.167c.817 0 1.485-.594 1.485-1.32V2.13c0-.726-.668-1.32-1.485-1.32M9.866 4.77H5.412v-.66h4.454zm0-1.32H5.412v-.66h4.454z"/></svg>
